X: 152
T: Mr Richd Campbell's Reel
C: attr. John French (1753-1803)
R: reel
B: "John French Collection", John French ed. p.15 #2
S: http://www.heallan.com/french.asp
Z: 2012 John Chambers <jc:trillian.mit.edu>
M: C|
L: 1/8
K: Gm
c |\
BGBd (GB/c/d).B | AcFc fcAF | GBdB AFcA | BGD^F GG,-G, :|
d |\
gdgb (Bg/a/b).g | fac=e fcAF | gdgb (Bg/a/b).g | fcAd BG-Gd
gdbg a^fgd | fcdf  cAGF | GBdg fdcA | BGD^F GG,-G, |]

%%sep 2 1 500
%%sep 1 1 500

